assets/svg/icon_wallet.svg

<svg width="24" height="24" viewBox="0 0 24 24" fill="none" xmlns="http://www.w3.org/2000/svg">
<path d="M5.3112 5.66594H18.6445C18.8003 5.6659 18.9559 5.67578 19.1104 5.69553C19.058 5.32793 18.9317 4.97475 18.7392 4.65727C18.5466 4.3398 18.2918 4.0646 17.99 3.84828C17.6882 3.63196 17.3457 3.47899 16.9832 3.3986C16.6207 3.31821 16.2457 3.31206 15.8808 3.38053L4.91536 5.25261H4.90286C4.21456 5.38423 3.60247 5.77366 3.19161 6.34136C3.81061 5.90108 4.55159 5.66496 5.3112 5.66594ZM18.6445 6.66594H5.3112C4.60419 6.66672 3.92636 6.94792 3.42643 7.44784C2.9265 7.94777 2.6453 8.6256 2.64453 9.33261V17.3326C2.6453 18.0396 2.9265 18.7174 3.42643 19.2174C3.92636 19.7173 4.60419 19.9985 5.3112 19.9993H18.6445C19.3515 19.9985 20.0294 19.7173 20.5293 19.2174C21.0292 18.7174 21.3104 18.0396 21.3112 17.3326V9.33261C21.3104 8.6256 21.0292 7.94777 20.5293 7.44784C20.0294 6.94792 19.3515 6.66672 18.6445 6.66594ZM16.6654 14.6659C16.4017 14.6659 16.1439 14.5877 15.9246 14.4412C15.7053 14.2947 15.5344 14.0865 15.4335 13.8429C15.3326 13.5992 15.3062 13.3311 15.3576 13.0725C15.4091 12.8138 15.5361 12.5763 15.7226 12.3898C15.909 12.2033 16.1466 12.0763 16.4052 12.0249C16.6639 11.9734 16.932 11.9999 17.1756 12.1008C17.4192 12.2017 17.6275 12.3726 17.774 12.5918C17.9205 12.8111 17.9987 13.0689 17.9987 13.3326C17.9987 13.6862 17.8582 14.0254 17.6082 14.2754C17.3581 14.5255 17.019 14.6659 16.6654 14.6659Z" fill="white"/>
<path d="M2.66797 12.1458V7.99996C2.66797 7.09704 3.16797 5.58329 4.90339 5.25538C6.3763 4.97913 7.83464 4.97913 7.83464 4.97913C7.83464 4.97913 8.79297 5.64579 8.0013 5.64579C7.20964 5.64579 7.23047 6.66663 8.0013 6.66663C8.77214 6.66663 8.0013 7.64579 8.0013 7.64579L4.89714 11.1666L2.66797 12.1458Z" fill="white"/>
</svg>

<svg xmlns="http://www.w3.org/2000/svg" width="24" height="24" fill="none"><path fill="#fff" d="M5.311 5.666h13.334q.233 0 .465.03a2.75 2.75 0 0 0-3.23-2.315L4.916 5.253h-.012A2.75 2.75 0 0 0 3.192 6.34a3.65 3.65 0 0 1 2.12-.675m13.334 1H5.31a2.67 2.67 0 0 0-2.666 2.667v8a2.67 2.67 0 0 0 2.666 2.666h13.334a2.67 2.67 0 0 0 2.666-2.666v-8a2.67 2.67 0 0 0-2.666-2.667m-1.98 8a1.334 1.334 0 1 1 0-2.667 1.334 1.334 0 0 1 0 2.667"/><path fill="#fff" d="M2.668 12.146V8c0-.903.5-2.417 2.235-2.745 1.473-.276 2.932-.276 2.932-.276s.958.667.166.667-.77 1.02 0 1.02c.771 0 0 .98 0 .98l-3.104 3.52z"/></svg>
